X:211
T:Duke of Perth
S:Colin Hume's website,  colinhume.com  - chords can also be printed below the stave.
Q:1/2=112
M:4/4
L:1/4
K:G
P:A
|:d | "G"G/A/B/c/ dB | "G"gB dB | "G"gB "Em"dB | "Am"aA "D7"AB/A/ |\
"G"G/A/B/c/ dB | "G"gB "E7/G#"dB | "Am"cA "D7"d3/c/ | "G"BG G :|
P:B
|:f | "Em"g3/a/ ge | "B7"a3/b/ af | "Em"g3/a/ ge | "Em"be ef |\
"C"g3/a/ ge | "Am"a3/b/ af | "G"gd "D7"ed/c/ | "G"BG G :|

